lib/flags/m/SH.svg

<svg xmlns="http://www.w3.org/2000/svg" fill="none" viewBox="0 0 20 15"><mask id="SH_svg__a" width="20" height="15" x="0" y="0" mask-type="alpha" maskUnits="userSpaceOnUse"><path fill="#fff" d="M0 0H20V15H0z"/></mask><g mask="url(#SH_svg__a)"><path fill="#2E42A5" fill-rule="evenodd" d="M0 0V15H20V0H0Z" clip-rule="evenodd"/><mask id="SH_svg__b" width="20" height="15" x="0" y="0" mask-type="alpha" maskUnits="userSpaceOnUse"><path fill="#fff" fill-rule="evenodd" d="M0 0V15H20V0H0Z" clip-rule="evenodd"/></mask><g mask="url(#SH_svg__b)"><path fill="#2E42A5" d="M0 0H11V9H0z"/><mask id="SH_svg__c" width="11" height="9" x="0" y="0" mask-type="alpha" maskUnits="userSpaceOnUse"><path fill="#fff" d="M0 0H11V9H0z"/></mask><g mask="url(#SH_svg__c)"><path fill="#F7FCFF" d="M-1.25266 8.12494L1.22294 9.21069L11.3062 1.18052L12.612 -0.432938L9.96471 -0.795827L5.852 2.6646L2.54169 4.99613L-1.25266 8.12494Z"/><path fill="#F50100" d="M-0.913757 8.88555L0.347444 9.51562L12.1431 -0.582947H10.3722L-0.913757 8.88555Z"/><path fill="#F7FCFF" d="M12.5027 8.1248L10.3056 9.52051L-0.0561562 1.18038L-1.36198 -0.433076L1.28532 -0.795966L5.39803 2.66447L8.70835 4.99599L12.5027 8.1248Z"/><path fill="#F50100" d="M12.4182 8.6707L11.157 9.30078L6.13431 4.97706L4.64518 4.49398L-1.48763 -0.427604H0.283246L6.41261 4.37716L8.04071 4.95642L12.4182 8.6707Z"/><mask id="SH_svg__d" width="13" height="11" x="-1" y="-1" fill="#000" maskUnits="userSpaceOnUse"><path fill="#fff" d="M-1-1H12V10H-1z"/><path fill-rule="evenodd" d="M6 0H5V4H0V5H5V9H6V5H11V4H6V0Z" clip-rule="evenodd"/></mask><path fill="#F50100" fill-rule="evenodd" d="M6 0H5V4H0V5H5V9H6V5H11V4H6V0Z" clip-rule="evenodd"/><path fill="#F7FCFF" d="M5 0V-0.9375H4.0625V0H5ZM6 0H6.9375V-0.9375H6V0ZM5 4V4.9375H5.9375V4H5ZM0 4V3.0625H-0.9375V4H0ZM0 5H-0.9375V5.9375H0V5ZM5 5H5.9375V4.0625H5V5ZM5 9H4.0625V9.9375H5V9ZM6 9V9.9375H6.9375V9H6ZM6 5V4.0625H5.0625V5H6ZM11 5V5.9375H11.9375V5H11ZM11 4H11.9375V3.0625H11V4ZM6 4H5.0625V4.9375H6V4ZM5 0.9375H6V-0.9375H5V0.9375ZM5.9375 4V0H4.0625V4H5.9375ZM0 4.9375H5V3.0625H0V4.9375ZM0.9375 5V4H-0.9375V5H0.9375ZM5 4.0625H0V5.9375H5V4.0625ZM5.9375 9V5H4.0625V9H5.9375ZM6 8.0625H5V9.9375H6V8.0625ZM5.0625 5V9H6.9375V5H5.0625ZM11 4.0625H6V5.9375H11V4.0625ZM10.0625 4V5H11.9375V4H10.0625ZM6 4.9375H11V3.0625H6V4.9375ZM5.0625 0V4H6.9375V0H5.0625Z" mask="url(#SH_svg__d)"/></g><path fill="#B7E1FF" stroke="#F7FCFF" stroke-width=".5" d="M13.7737 6.02051H13.5237V6.27051C13.5237 6.54008 13.5225 6.80465 13.5213 7.0632C13.5184 7.681 13.5157 8.26439 13.5303 8.79936C13.551 9.55841 13.6067 10.2418 13.7525 10.8153C13.8986 11.3903 14.1407 11.877 14.5504 12.2174C14.9623 12.5597 15.5117 12.7276 16.2189 12.7276C16.9388 12.7276 17.5026 12.5167 17.9284 12.129C18.349 11.7461 18.612 11.2113 18.7751 10.6025C19.0988 9.39357 19.0502 7.80136 18.9621 6.25627L18.9486 6.02051H18.7125H13.7737Z"/><mask id="SH_svg__e" width="7" height="8" x="13" y="5" mask-type="alpha" maskUnits="userSpaceOnUse"><path fill="#fff" stroke="#fff" stroke-width=".5" d="M13.7737 6.02051H13.5237V6.27051C13.5237 6.54008 13.5225 6.80465 13.5213 7.0632C13.5184 7.681 13.5157 8.26439 13.5303 8.79936C13.551 9.55841 13.6067 10.2418 13.7525 10.8153C13.8986 11.3903 14.1407 11.877 14.5504 12.2174C14.9623 12.5597 15.5117 12.7276 16.2189 12.7276C16.9388 12.7276 17.5026 12.5167 17.9284 12.129C18.349 11.7461 18.612 11.2113 18.7751 10.6025C19.0988 9.39357 19.0502 7.80136 18.9621 6.25627L18.9486 6.02051H18.7125H13.7737Z"/></mask><g mask="url(#SH_svg__e)"><path fill="#2E42A5" d="M15 11.25H18.75V12.5H15z"/><g filter="url(#SH_svg__f)"><path fill="#FDFF00" d="M12.5 5H20V8.75H12.5z"/></g><path fill="#F7FCFF" stroke="#272727" stroke-width=".625" d="M15.737 6.79784C15.7322 6.75089 15.7247 6.69015 15.7052 6.62627L16.0004 7.54349C15.9731 7.51638 15.944 7.49181 15.9227 7.47395C15.9186 7.4705 15.9146 7.4672 15.9109 7.46404C15.8924 7.44853 15.8774 7.43604 15.8621 7.42223C15.7989 7.3656 15.7681 7.32322 15.7633 7.2428C15.7595 7.17908 15.7565 7.11778 15.7537 7.06047C15.7486 6.95678 15.7441 6.86615 15.737 6.79784ZM15.5034 8.41156C15.5034 8.41156 15.5034 8.41156 15.5034 8.41156L15.5585 8.45587L15.5585 8.45588L15.5034 8.41156Z"/><path fill="#FDFF00" d="M15.5164 8.77759H15.6414V11.2496H15.5164V8.77759Z"/><path fill="#F7FCFF" fill-rule="evenodd" d="M15.0627 10.5081H16.1769C16.1769 10.5081 16.1877 10.8296 16.0185 10.7701C15.8494 10.7106 16.0355 10.8296 15.7781 10.7701C15.5208 10.7106 15.294 10.9568 15.2363 10.8337C15.1786 10.7106 14.9547 10.8687 15.0087 10.6884C15.0627 10.5081 15.0627 10.5081 15.0627 10.5081Z" clip-rule="evenodd"/><path fill="#212123" d="M15.083 10.477H16.166V10.602H15.083z"/><path fill="#F7FCFF" fill-rule="evenodd" d="M15.2168 10.041H16.1082C16.1082 10.041 16.1168 10.2982 15.9815 10.2506C15.8461 10.2031 15.995 10.2982 15.7891 10.2506C15.5833 10.2031 15.4018 10.4 15.3557 10.3015C15.3095 10.2031 15.1304 10.3295 15.1736 10.1853C15.2168 10.041 15.2168 10.041 15.2168 10.041Z" clip-rule="evenodd"/><path fill="#212123" d="M15.233 10.017H16.1V10.142H15.233z"/><path fill="#F7FCFF" fill-rule="evenodd" d="M15.0543 9.52832H16.02C16.02 9.52832 16.0293 9.78554 15.8827 9.73795C15.7361 9.69036 15.8974 9.78554 15.6744 9.73795C15.4513 9.69036 15.2548 9.8873 15.2048 9.78883C15.1548 9.69036 14.9607 9.8168 15.0075 9.67256C15.0543 9.52832 15.0543 9.52832 15.0543 9.52832Z" clip-rule="evenodd"/><path fill="#212123" d="M15.072 9.504H16.011V9.629H15.072z"/><path fill="#F7FCFF" fill-rule="evenodd" d="M15.1335 9.09766H16.0249C16.0249 9.09766 16.0335 9.41918 15.8981 9.3597C15.7628 9.30021 15.9117 9.41918 15.7058 9.3597C15.4999 9.30021 15.3185 9.54638 15.2724 9.42329C15.2262 9.30021 15.0471 9.45825 15.0903 9.27795C15.1335 9.09766 15.1335 9.09766 15.1335 9.09766Z" clip-rule="evenodd"/><path fill="#212123" d="M15.15 9.067H16.017V9.192H15.15z"/><path fill="#FDFF00" d="M16.714 9.09009H16.839V11.5621H16.714V9.09009Z"/><path fill="#F7FCFF" fill-rule="evenodd" d="M16.3127 10.6099H17.4269C17.4269 10.6099 17.4377 10.8671 17.2685 10.8195C17.0994 10.7719 17.2855 10.8671 17.0281 10.8195C16.7708 10.7719 16.544 10.9688 16.4863 10.8704C16.4286 10.7719 16.2047 10.8983 16.2587 10.7541C16.3127 10.6099 16.3127 10.6099 16.3127 10.6099Z" clip-rule="evenodd"/><path fill="#212123" d="M16.333 10.585H17.415999999999997V10.71H16.333z"/><path fill="#F7FCFF" fill-rule="evenodd" d="M16.4778 10.144H17.3533C17.3533 10.144 17.3617 10.337 17.2288 10.3013C17.0959 10.2656 17.2422 10.337 17.0399 10.3013C16.8377 10.2656 16.6595 10.4133 16.6142 10.3394C16.5689 10.2656 16.393 10.3604 16.4354 10.2522C16.4778 10.144 16.4778 10.144 16.4778 10.144Z" clip-rule="evenodd"/><path fill="#212123" d="M16.494 10.126H17.345V10.251H16.494z"/><path fill="#F7FCFF" fill-rule="evenodd" d="M16.3037 9.6311H17.2588C17.2588 9.6311 17.268 9.82402 17.123 9.78833C16.978 9.75264 17.1376 9.82402 16.917 9.78833C16.6964 9.75264 16.502 9.90034 16.4525 9.82649C16.4031 9.75264 16.2112 9.84746 16.2574 9.73928C16.3037 9.6311 16.3037 9.6311 16.3037 9.6311Z" clip-rule="evenodd"/><path fill="#212123" d="M16.321 9.613H17.25V9.738H16.321z"/><path fill="#F7FCFF" fill-rule="evenodd" d="M16.3885 9.19971H17.264C17.264 9.19971 17.2724 9.45693 17.1395 9.40934C17.0066 9.36175 17.1529 9.45693 16.9506 9.40934C16.7484 9.36175 16.5702 9.55869 16.5249 9.46022C16.4796 9.36175 16.3037 9.48818 16.3461 9.34395C16.3885 9.19971 16.3885 9.19971 16.3885 9.19971Z" clip-rule="evenodd"/><path fill="#212123" d="M16.405 9.175H17.256V9.3H16.405z"/><path fill="#FDFF00" d="M18.4315 8.78662H18.5565V12.0733H18.4315V8.78662Z"/><path fill="#F7FCFF" fill-rule="evenodd" d="M17.9207 10.7832H19.3388C19.3388 10.7832 19.3525 11.0404 19.1372 10.9928C18.9219 10.9452 19.1588 11.0404 18.8313 10.9928C18.5037 10.9452 18.2151 11.1422 18.1416 11.0437C18.0682 10.9452 17.7833 11.0717 17.852 10.9274C17.9207 10.7832 17.9207 10.7832 17.9207 10.7832Z" clip-rule="evenodd"/><path fill="#212123" d="M17.947 10.759H19.326V10.884H17.947z"/><path fill="#F7FCFF" fill-rule="evenodd" d="M18.1309 10.1597H19.2451C19.2451 10.1597 19.2558 10.3526 19.0867 10.3169C18.9175 10.2812 19.1037 10.3526 18.8463 10.3169C18.589 10.2812 18.3622 10.4289 18.3045 10.3551C18.2468 10.2812 18.0229 10.376 18.0769 10.2678C18.1309 10.1597 18.1309 10.1597 18.1309 10.1597Z" clip-rule="evenodd"/><path fill="#212123" d="M18.151 10.144H19.233999999999998V10.269H18.151z"/><path fill="#F7FCFF" fill-rule="evenodd" d="M18.0172 9.33447H19.1315C19.1315 9.33447 19.1422 9.59169 18.973 9.5441C18.8039 9.49651 18.99 9.59169 18.7327 9.5441C18.4753 9.49651 18.2485 9.69345 18.1908 9.59498C18.1331 9.49651 17.9092 9.62295 17.9632 9.47871C18.0172 9.33447 18.0172 9.33447 18.0172 9.33447Z" clip-rule="evenodd"/><path fill="#212123" d="M18.038 9.31H19.121V9.435H18.038z"/><path fill="#272727" fill-rule="evenodd" d="M15.1157 11.0543C15.1157 11.0543 15.6942 11.3686 16.5763 11.3145C17.4583 11.2603 17.395 11.4306 17.6238 11.1884C17.8526 10.9461 17.8727 11.0001 18.158 10.873C18.4434 10.7458 18.4843 10.6259 18.6314 10.6259C18.7786 10.6259 20.3453 10.563 20.3453 10.563C20.3453 10.563 20.2019 10.6917 20.2019 10.873C20.2019 11.0543 20.2975 11.0729 20.2019 11.2372C20.1063 11.4016 19.9983 11.6214 19.8596 11.6852C19.7209 11.749 17.8484 11.7894 17.3709 11.7894C16.8934 11.7894 15.9128 11.8425 15.7999 11.7894C15.6871 11.7362 15.1157 11.0543 15.1157 11.0543Z" clip-rule="evenodd"/><path fill="#CE6201" fill-rule="evenodd" d="M13.8235 9.80403L14.3818 9.28979C14.3818 9.28979 14.4062 9.28979 14.5099 9.54691C14.6137 9.80403 14.6186 10.1557 14.7265 10.0679C14.8344 9.98004 15.0005 10.0611 15.0705 9.80403C15.1404 9.54691 15.136 9.21396 15.2249 9.38044C15.3138 9.54691 15.261 9.30355 15.4029 9.68571C15.5448 10.0679 15.601 9.52152 15.6791 10.0679C15.7571 10.6142 15.8231 10.8028 15.8231 10.9298C15.8231 11.0569 16.5339 11.4356 16.2613 11.6964C15.9887 11.9572 16.0658 11.8343 15.8231 11.9983C15.5805 12.1623 15.3318 12.0669 15.6791 12.1957C16.0263 12.3245 15.9766 12.558 15.9766 12.7302C15.9766 12.9024 15.9552 12.9795 15.6791 12.9409C15.4029 12.9024 15.0671 13.0398 15 13.0398C14.9329 13.0398 14.1234 12.8748 14.1234 12.5353C14.1234 12.1957 13.8235 9.80403 13.8235 9.80403Z" clip-rule="evenodd"/></g></g></g><defs><filter id="SH_svg__f" width="7.5" height="3.75" x="12.5" y="5" color-interpolation-filters="sRGB" filterUnits="userSpaceOnUse"><feFlood flood-opacity="0" result="BackgroundImageFix"/><feColorMatrix in="SourceAlpha" values="0 0 0 0 0 0 0 0 0 0 0 0 0 0 0 0 0 0 127 0"/><feOffset/><feColorMatrix values="0 0 0 0 0 0 0 0 0 0 0 0 0 0 0 0 0 0 0.5 0"/><feBlend in2="BackgroundImageFix" result="effect1_dropShadow"/><feBlend in="SourceGraphic" in2="effect1_dropShadow" result="shape"/></filter></defs></svg>

<svg xmlns="http://www.w3.org/2000/svg" fill="none" viewBox="0 0 20 15"><mask id="SH_svg__a" width="20" height="15" x="0" y="0" maskUnits="userSpaceOnUse"><path fill="#fff" d="M0 0h20v15H0z"/></mask><g mask="url(#SH_svg__a)"><path fill="#2E42A5" fill-rule="evenodd" d="M0 0v15h20V0H0z" clip-rule="evenodd"/><mask id="SH_svg__b" width="20" height="15" x="0" y="0" maskUnits="userSpaceOnUse"><path fill="#fff" fill-rule="evenodd" d="M0 0v15h20V0H0z" clip-rule="evenodd"/></mask><g mask="url(#SH_svg__b)"><path fill="#2E42A5" d="M0 0h11v9H0z"/><mask id="SH_svg__c" width="11" height="9" x="0" y="0" maskUnits="userSpaceOnUse"><path fill="#fff" d="M0 0h11v9H0z"/></mask><g mask="url(#SH_svg__c)"><path fill="#F7FCFF" d="M-1.253 8.125L1.223 9.21l10.083-8.03 1.306-1.614-2.647-.363-4.113 3.46-3.31 2.332-3.795 3.129z"/><path fill="#F50100" d="M-.914 8.886l1.261.63L12.143-.583h-1.77L-.915 8.886z"/><path fill="#F7FCFF" d="M12.503 8.125L10.306 9.52-.056 1.18-1.362-.434l2.647-.363 4.113 3.46 3.31 2.332 3.795 3.129z"/><path fill="#F50100" d="M12.418 8.67l-1.261.63-5.023-4.323-1.489-.483-6.133-4.921H.283l6.13 4.804 1.628.58 4.377 3.714z"/><mask id="SH_svg__d" width="13" height="11" x="-1" y="-1" fill="#000" maskUnits="userSpaceOnUse"><path fill="#fff" d="M-1-1h13v11H-1z"/><path fill-rule="evenodd" d="M6 0H5v4H0v1h5v4h1V5h5V4H6V0z" clip-rule="evenodd"/></mask><path fill="#F50100" fill-rule="evenodd" d="M6 0H5v4H0v1h5v4h1V5h5V4H6V0z" clip-rule="evenodd"/><path fill="#F7FCFF" d="M5 0v-.938h-.938V0H5zm1 0h.938v-.938H6V0zM5 4v.938h.938V4H5zM0 4v-.938h-.938V4H0zm0 1h-.938v.938H0V5zm5 0h.938v-.938H5V5zm0 4h-.938v.938H5V9zm1 0v.938h.938V9H6zm0-4v-.938h-.938V5H6zm5 0v.938h.938V5H11zm0-1h.938v-.938H11V4zM6 4h-.938v.938H6V4zM5 .937h1V-.938H5V.938zM5.938 4V0H4.063v4h1.875zM0 4.938h5V3.063H0v1.874zM.938 5V4H-.938v1H.938zM5 4.062H0v1.875h5V4.063zM5.938 9V5H4.063v4h1.875zM6 8.062H5v1.876h1V8.062zM5.062 5v4h1.875V5H5.063zM11 4.062H6v1.875h5V4.063zM10.062 4v1h1.876V4h-1.876zM6 4.938h5V3.063H6v1.874zM5.062 0v4h1.875V0H5.063z" mask="url(#SH_svg__d)"/></g><path fill="#B7E1FF" stroke="#F7FCFF" stroke-width=".5" d="M13.774 6.02h-.25v.25c0 .27-.001.535-.003.793-.003.618-.005 1.201.01 1.736.02.76.076 1.443.221 2.016.147.575.389 1.062.798 1.402.412.343.962.51 1.669.51.72 0 1.284-.21 1.71-.598.42-.383.683-.918.846-1.527.324-1.208.275-2.8.187-4.346l-.013-.236h-5.175z"/><mask id="SH_svg__e" width="7" height="8" x="13" y="5" maskUnits="userSpaceOnUse"><path fill="#fff" stroke="#fff" stroke-width=".5" d="M13.774 6.02h-.25v.25c0 .27-.001.535-.003.793-.003.618-.005 1.201.01 1.736.02.76.076 1.443.221 2.016.147.575.389 1.062.798 1.402.412.343.962.51 1.669.51.72 0 1.284-.21 1.71-.598.42-.383.683-.918.846-1.527.324-1.208.275-2.8.187-4.346l-.013-.236h-5.175z"/></mask><g mask="url(#SH_svg__e)"><path fill="#2E42A5" d="M15 11.25h3.75v1.25H15z"/><g filter="url(#SH_svg__f)"><path fill="#FDFF00" d="M12.5 5H20v3.75h-7.5z"/></g><path fill="#F7FCFF" stroke="#272727" stroke-width=".625" d="M15.737 6.798a.889.889 0 00-.032-.172l.295.917a1.247 1.247 0 00-.077-.069l-.012-.01-.049-.042c-.063-.056-.094-.099-.099-.18a16.785 16.785 0 01-.01-.182 5.389 5.389 0 00-.016-.262zm-.234 1.614s0 0 0 0l.056.044h0l-.056-.044z"/><path fill="#FDFF00" d="M15.516 8.778h.125v2.472h-.125V8.778z"/><path fill="#F7FCFF" fill-rule="evenodd" d="M15.063 10.508h1.114s.01.321-.158.262c-.17-.06.017.06-.24 0-.258-.06-.485.187-.543.064-.057-.124-.281.034-.227-.146l.054-.18z" clip-rule="evenodd"/><path fill="#212123" d="M15.083 10.477h1.083v.125h-1.083z"/><path fill="#F7FCFF" fill-rule="evenodd" d="M15.217 10.04h.891s.009.258-.127.21c-.135-.047.014.048-.192 0-.206-.047-.387.15-.433.051-.046-.098-.226.028-.182-.116l.043-.144z" clip-rule="evenodd"/><path fill="#212123" d="M15.233 10.017h.867v.125h-.867z"/><path fill="#F7FCFF" fill-rule="evenodd" d="M15.054 9.528h.966s.01.257-.137.21c-.147-.048.015.047-.209 0-.223-.048-.42.15-.47.05-.05-.098-.243.029-.196-.116l.046-.144z" clip-rule="evenodd"/><path fill="#212123" d="M15.072 9.504h.939v.125h-.939z"/><path fill="#F7FCFF" fill-rule="evenodd" d="M15.133 9.098h.892s.009.321-.127.262c-.135-.06.014.06-.192 0-.206-.06-.387.186-.434.063-.046-.123-.225.035-.182-.145l.043-.18z" clip-rule="evenodd"/><path fill="#212123" d="M15.15 9.067h.867v.125h-.867z"/><path fill="#FDFF00" d="M16.714 9.09h.125v2.472h-.125V9.09z"/><path fill="#F7FCFF" fill-rule="evenodd" d="M16.313 10.61h1.114s.01.257-.158.21c-.17-.048.017.047-.24 0-.258-.048-.485.149-.543.05-.057-.098-.281.028-.227-.116l.054-.144z" clip-rule="evenodd"/><path fill="#212123" d="M16.333 10.585h1.083v.125h-1.083z"/><path fill="#F7FCFF" fill-rule="evenodd" d="M16.478 10.144h.875s.009.193-.124.157c-.133-.036.013.036-.189 0s-.38.112-.426.038c-.045-.074-.221.021-.179-.087l.043-.108z" clip-rule="evenodd"/><path fill="#212123" d="M16.494 10.125h.851v.125h-.851z"/><path fill="#F7FCFF" fill-rule="evenodd" d="M16.304 9.631h.955s.009.193-.136.157c-.145-.035.015.036-.206 0-.22-.035-.415.112-.464.039-.05-.074-.242.02-.195-.088l.046-.108z" clip-rule="evenodd"/><path fill="#212123" d="M16.321 9.613h.929v.125h-.929z"/><path fill="#F7FCFF" fill-rule="evenodd" d="M16.389 9.2h.875s.009.257-.124.21c-.133-.048.013.047-.19 0-.201-.048-.38.149-.425.05-.045-.098-.221.028-.179-.116l.043-.144z" clip-rule="evenodd"/><path fill="#212123" d="M16.405 9.175h.851V9.3h-.851z"/><path fill="#FDFF00" d="M18.431 8.787h.125v3.286h-.125V8.787z"/><path fill="#F7FCFF" fill-rule="evenodd" d="M17.92 10.783h1.419s.014.257-.202.21c-.215-.048.022.047-.306 0-.327-.048-.616.15-.69.05-.073-.098-.358.029-.289-.116l.069-.144z" clip-rule="evenodd"/><path fill="#212123" d="M17.947 10.759h1.379v.125h-1.379z"/><path fill="#F7FCFF" fill-rule="evenodd" d="M18.13 10.16h1.115s.01.193-.158.157c-.17-.036.017.036-.24 0-.258-.036-.485.112-.543.038-.057-.074-.281.021-.227-.087l.054-.108z" clip-rule="evenodd"/><path fill="#212123" d="M18.151 10.144h1.083v.125h-1.083z"/><path fill="#F7FCFF" fill-rule="evenodd" d="M18.017 9.334h1.114s.011.258-.158.21c-.17-.048.017.048-.24 0-.258-.048-.485.15-.542.05-.058-.098-.282.029-.228-.115l.054-.145z" clip-rule="evenodd"/><path fill="#212123" d="M18.038 9.31h1.083v.125h-1.083z"/><path fill="#272727" fill-rule="evenodd" d="M15.116 11.054s.578.315 1.46.26c.882-.054.819.117 1.048-.126.229-.242.249-.188.534-.315.285-.127.326-.247.473-.247.148 0 1.714-.063 1.714-.063s-.143.129-.143.31.095.2 0 .364c-.096.165-.204.384-.342.448-.14.064-2.012.104-2.49.104-.477 0-1.457.053-1.57 0-.113-.053-.684-.735-.684-.735z" clip-rule="evenodd"/><path fill="#CE6201" fill-rule="evenodd" d="M13.823 9.804l.559-.514s.024 0 .128.257c.104.257.109.609.216.52.108-.087.274-.006.344-.263.07-.257.066-.59.155-.424.089.167.036-.076.178.306s.198-.165.276.382c.078.546.144.735.144.862s.71.506.438.766c-.272.261-.195.138-.438.302-.242.164-.491.069-.144.198s.298.362.298.534c0 .172-.022.25-.298.21-.276-.038-.612.1-.679.1-.067 0-.877-.165-.877-.505 0-.34-.3-2.731-.3-2.731z" clip-rule="evenodd"/></g></g></g><defs><filter id="SH_svg__f" width="7.5" height="3.75" x="12.5" y="5" color-interpolation-filters="sRGB" filterUnits="userSpaceOnUse"><feFlood flood-opacity="0" result="BackgroundImageFix"/><feColorMatrix in="SourceAlpha" values="0 0 0 0 0 0 0 0 0 0 0 0 0 0 0 0 0 0 127 0"/><feOffset/><feColorMatrix values="0 0 0 0 0 0 0 0 0 0 0 0 0 0 0 0 0 0 0.5 0"/><feBlend in2="BackgroundImageFix" result="effect1_dropShadow"/><feBlend in="SourceGraphic" in2="effect1_dropShadow" result="shape"/></filter></defs></svg>
